X: 317
T: Tombigbee Waltz
C:Traditional
B: canberra pickers and fiddlers
B: tunes
M:3/4
L:1/4
Q: 1/4=100
K:G
V:1 
|: "G"GBB | "(Gm7)"d2B/A/ |"(G6)" GBB |"G" d2B | 
"D7 (Am)"BAA |"(Am6)" A2B/d/ |1"C"e2d | "D7"B2B/A/ :|2"C"ed"D7"F | "G"G2d ||
|: "G"g2d |"G (B)" g2d | "C"e>de | "G"d2B | 
"D7"BAA | A2B/d/ |1 "C"e2d | "D7"B2d :|2 "C"ed"D7"F | "G"G2z |]
% abcbook-tune_id 63da5934807175526ee0893a
% abcbook-tune_composer_id 
% abcbook-link-0 https://www.youtube.com/watch?v=kG_LASYxgyc
% abcbook-boost 0
% abcbook-difficulty 0
% abcbook-tags canberra pickers and fiddlers,old time tunes,© free
% abcbook-tablature 
% abcbook-transpose 
% abcbook-tuning GDAD
% abcbook-lastupdated 1729115037957
% abcbook-src-url https://tunebook.net/scrape/tunes.abc
% abcbook-soundfonts 
% abcbook-repeats 1
%%gchordfont "itim-music,Itim" 20

